X:1
T: Audrey Langskaill's Welcome
C: Billy Hancox
R:Reel
I:speed 232
Q:232
K:A
M:4/4
L:1/8
E2|:cB cd ec AE|FD FA E4|cB cd ec BA|B^A Bc B4|
cB cd ec AE|FD FA E2EA|cd ec BE GB|A2A2 A4:|
|:GF GA BE GB|AG AB c4|Bc ^dB cB cd|e^d ef e=d cB|
|1GF GA BE GB|AG AB c4|Bc ^dB cB AF|GF GA G2E2:|
|2cB cd ec AE|FD FA E2EA|cd ec BE GB|A2A2 A4||
